web/public/images/electricitymap-loading.svg

<svg width="692" height="150" viewBox="0 0 692 150" fill="none" xmlns="http://www.w3.org/2000/svg">
<path d="M107.661 111.468C109.695 111.468 111.343 109.818 111.343 107.782C111.343 105.747 109.695 104.097 107.661 104.097C105.628 104.097 103.98 105.747 103.98 107.782C103.98 109.818 105.628 111.468 107.661 111.468Z" fill="black">
    <animateTransform
        attributeName="transform" type="translate"
        from="0 0" to="-34 0"
        begin="0s" dur="0.75s"
        repeatCount="indefinite"
    />
</path>
<path d="M74.9158 111.468C76.949 111.468 78.5973 109.818 78.5973 107.782C78.5973 105.747 76.949 104.097 74.9158 104.097C72.8826 104.097 71.2344 105.747 71.2344 107.782C71.2344 109.818 72.8826 111.468 74.9158 111.468Z" fill="black">
    <animateTransform
        attributeName="transform" type="translate"
        from="0 0" to="-34 0"
        begin="0s" dur="0.75s"
        repeatCount="indefinite"
    />
</path>
<path d="M42.1707 111.468C44.2039 111.468 45.8521 109.818 45.8521 107.782C45.8521 105.747 44.2039 104.097 42.1707 104.097C40.1375 104.097 38.4893 105.747 38.4893 107.782C38.4893 109.818 40.1375 111.468 42.1707 111.468Z" fill="black">
    <animateTransform
        attributeName="transform" type="translate"
        from="0 0" to="0 -34"
        begin="0s" dur="0.75s"
        repeatCount="indefinite"
    />
</path>
<path d="M107.661 78.6856C109.695 78.6856 111.343 77.0355 111.343 75C111.343 72.9645 109.695 71.3145 107.661 71.3145C105.628 71.3145 103.98 72.9645 103.98 75C103.98 77.0355 105.628 78.6856 107.661 78.6856Z" fill="black">
    <animateTransform
        attributeName="transform" type="translate"
        from="0 0" to="0 34"
        begin="0s" dur="0.75s"
        repeatCount="indefinite"
    />
</path>
<path d="M42.1707 78.6856C44.2039 78.6856 45.8521 77.0355 45.8521 75C45.8521 72.9645 44.2039 71.3145 42.1707 71.3145C40.1375 71.3145 38.4893 72.9645 38.4893 75C38.4893 77.0355 40.1375 78.6856 42.1707 78.6856Z" fill="black">
    <animateTransform
        attributeName="transform" type="translate"
        from="0 0" to="0 -34"
        begin="0s" dur="0.75s"
        repeatCount="indefinite"
    />
</path>
<path d="M107.661 45.9034C109.695 45.9034 111.343 44.2533 111.343 42.2178C111.343 40.1823 109.695 38.5322 107.661 38.5322C105.628 38.5322 103.98 40.1823 103.98 42.2178C103.98 44.2533 105.628 45.9034 107.661 45.9034Z" fill="black">
    <animateTransform
        attributeName="transform" type="translate"
        from="0 0" to="0 34"
        begin="0s" dur="0.75s"
        repeatCount="indefinite"
    />
</path>
<path d="M74.9158 45.9034C76.949 45.9034 78.5973 44.2533 78.5973 42.2178C78.5973 40.1823 76.949 38.5322 74.9158 38.5322C72.8826 38.5322 71.2344 40.1823 71.2344 42.2178C71.2344 44.2533 72.8826 45.9034 74.9158 45.9034Z" fill="black">
    <animateTransform
        attributeName="transform" type="translate"
        from="0 0" to="34 0"
        bbegin="0s" dur="0.75s"
        repeatCount="indefinite"
    />
</path>
<path d="M42.1707 45.9034C44.2039 45.9034 45.8521 44.2533 45.8521 42.2178C45.8521 40.1823 44.2039 38.5322 42.1707 38.5322C40.1375 38.5322 38.4893 40.1823 38.4893 42.2178C38.4893 44.2533 40.1375 45.9034 42.1707 45.9034Z" fill="black">
    <animateTransform
        attributeName="transform" type="translate"
        from="0 0" to="34 0"
        begin="0s" dur="0.75s"
        repeatCount="indefinite"
    />
</path>
<path d="M92.6448 69.4785H77.1232V56.4335C77.1233 56.1188 77.0252 55.812 76.8426 55.5559C76.6601 55.2997 76.4021 55.1071 76.1049 55.0048C75.8076 54.9026 75.4859 54.8958 75.1846 54.9855C74.8833 55.0752 74.6176 55.2569 74.4244 55.5052L55.9896 78.0828C55.8155 78.3064 55.7078 78.5745 55.6788 78.8565C55.6498 79.1384 55.7007 79.4229 55.8256 79.6773C55.9505 79.9317 56.1444 80.1458 56.3851 80.295C56.6258 80.4443 56.9036 80.5227 57.1867 80.5214H72.7083V93.5663C72.7082 93.881 72.8063 94.1879 72.9889 94.444C73.1714 94.7002 73.4294 94.8928 73.7266 94.9951C74.0239 95.0973 74.3456 95.1041 74.6469 95.0143C74.9482 94.9246 75.214 94.7429 75.4071 94.4947L93.842 71.9171C94.016 71.6935 94.1237 71.4254 94.1527 71.1434C94.1817 70.8614 94.1308 70.577 94.0059 70.3226C93.881 70.0682 93.6872 69.8541 93.4465 69.7048C93.2057 69.5556 92.9279 69.4771 92.6448 69.4785V69.4785Z" fill="black"/>
<path d="M170.703 88.821V95.1391H146.31V54.9165H170.419V61.2416H152.932V71.6956H168.986V77.9305H152.932V88.7933L170.703 88.821Z" fill="black"/>
<path d="M201.054 88.821V95.1391H178.093V54.9165H184.695V88.821H201.054Z" fill="black"/>
<path d="M230.574 88.821V95.1391H206.174V54.9165H230.284V61.2416H212.776V71.6956H228.851V77.9305H212.776V88.7933L230.574 88.821Z" fill="black"/>
<path d="M234.92 75.0278C234.92 63.3684 243.701 54.1683 255.929 54.1683C259.4 54.1103 262.826 54.9669 265.862 56.6521C268.899 58.3374 271.439 60.7921 273.229 63.7702L267.485 67.1024C265.361 63.1328 261.001 60.6042 255.95 60.6042C247.286 60.6042 241.542 66.756 241.542 75.0278C241.542 83.2995 247.286 89.4514 255.95 89.4514C261.001 89.4514 265.423 86.9228 267.485 82.9601L273.229 86.2369C269.901 92.0978 263.354 95.8873 255.929 95.8873C243.701 95.8873 234.92 86.6941 234.92 75.0278Z" fill="black"/>
<path d="M306.003 61.2416H294.695V95.1391H288.094V61.2416H276.731V54.9165H306.003V61.2416Z" fill="black"/>
<path d="M325.537 80.4867H317.732V95.139H311.13V54.9164H327.198C328.897 54.9099 330.579 55.2401 332.15 55.8878C333.72 56.5356 335.147 57.4881 336.348 58.6904C337.549 59.8927 338.5 61.3211 339.147 62.8932C339.794 64.4654 340.124 66.1502 340.118 67.8505C340.096 70.3649 339.327 72.816 337.91 74.8922C336.493 76.9683 334.492 78.5757 332.16 79.5099L341.28 95.139H334.028L325.537 80.4867ZM317.732 74.5704H327.198C328.054 74.5462 328.897 74.353 329.679 74.0019C330.46 73.6508 331.164 73.1486 331.751 72.5242C332.338 71.8999 332.796 71.1656 333.099 70.3635C333.402 69.5615 333.544 68.7075 333.516 67.8505C333.516 64.0541 330.7 61.1236 327.198 61.1236H317.732V74.5704Z" fill="black"/>
<path d="M354.048 54.9165V95.1391H347.446V54.9165H354.048Z" fill="black"/>
<path d="M360.989 75.0278C360.989 63.3684 369.77 54.1683 381.998 54.1683C385.469 54.1103 388.895 54.9669 391.931 56.6521C394.967 58.3374 397.508 60.7921 399.298 63.7702L393.554 67.1024C391.43 63.1328 387.07 60.6042 382.019 60.6042C373.348 60.6042 367.611 66.756 367.611 75.0278C367.611 83.2995 373.348 89.4514 382.019 89.4514C387.07 89.4514 391.492 86.9228 393.554 82.9601L399.298 86.2369C395.969 92.0978 389.423 95.8873 381.998 95.8873C369.77 95.8873 360.989 86.6941 360.989 75.0278Z" fill="black"/>
<path d="M412.224 54.9165V95.1391H405.623V54.9165H412.224Z" fill="black"/>
<path d="M446.554 61.2416H435.268V95.1391H428.673V61.2416H417.276V54.9165H446.554V61.2416Z" fill="black"/>
<path d="M470.601 79.1705V95.139H464V79.1705L449.994 54.9233H457.516L467.328 72.7416L477.085 54.9233H484.607L470.601 79.1705Z" fill="black"/>
<path d="M545.158 95.1391H538.556V66.4651L526.335 86.6942H525.532L513.305 66.4097V95.1391H506.703V54.9165H513.817L525.934 75.007L538.099 54.9165H545.158V95.1391Z" fill="black"/>
<path d="M577.184 87.0406H560.077L557.268 95.1391H550.092L564.672 54.9165H572.589L587.121 95.1391H579.993L577.184 87.0406ZM575.004 80.8056L568.63 62.6479L562.257 80.8056H575.004Z" fill="black"/>
<path d="M620.136 68.1347C620.156 69.886 619.824 71.6235 619.16 73.2439C618.496 74.8643 617.513 76.3346 616.271 77.5675C615.028 78.8005 613.551 79.7709 611.927 80.4212C610.302 81.0714 608.564 81.3883 606.815 81.3529H598.58V95.1391H592.006V54.9165H606.815C608.565 54.8763 610.306 55.1898 611.932 55.8384C613.559 56.4869 615.038 57.4571 616.282 58.6911C617.525 59.925 618.507 61.3972 619.169 63.0198C619.832 64.6424 620.16 66.3821 620.136 68.1347V68.1347ZM613.534 68.1347C613.534 64.0542 610.718 61.1238 606.815 61.1238H598.58V75.1456H606.815C610.718 75.1456 613.534 72.1597 613.534 68.1347Z" fill="black"/>
<path d="M623.776 86.0083L629.457 82.676C630.897 86.7495 633.997 89.4514 639.45 89.4514C644.674 89.4514 646.909 87.0959 646.909 84.1655C646.909 80.6046 643.754 79.3992 637.782 77.5564C631.554 75.6651 625.444 73.3997 625.444 65.7792C625.444 58.3665 631.582 54.1682 638.356 54.1682C641.306 54.0944 644.211 54.8982 646.704 56.4779C649.198 58.0576 651.167 60.3423 652.362 63.0427L646.792 66.2572C645.359 63.0427 642.868 60.6041 638.356 60.6041C634.509 60.6041 632.045 62.5578 632.045 65.606C632.045 68.6542 634.28 70.0328 640.135 71.841C646.792 73.9678 653.511 76.0392 653.511 84.0269C653.511 91.3773 647.657 95.8595 639.277 95.8595C631.353 95.8872 625.9 91.98 623.776 86.0083Z" fill="black"/>
</svg>

<svg width="692" height="150" xmlns="http://www.w3.org/2000/svg"><circle cx="107.661" cy="108" r="4" style="opacity:.3"><animate attributeName="opacity" from="1" to=".3" dur="0.8s" repeatCount="indefinite" begin="0s"/></circle><circle cx="74.916" cy="108" r="4" style="opacity:.3"><animate attributeName="opacity" from="1" to=".3" dur="0.8s" repeatCount="indefinite" begin="0.1s"/></circle><circle cx="42.171" cy="108" r="4" style="opacity:.3"><animate attributeName="opacity" from="1" to=".3" dur="0.8s" repeatCount="indefinite" begin="0.2s"/></circle><circle cx="42.171" cy="75" r="4" style="opacity:.3"><animate attributeName="opacity" from="1" to=".3" dur="0.8s" repeatCount="indefinite" begin="0.3s"/></circle><circle cx="42.171" cy="42" r="4" style="opacity:.3"><animate attributeName="opacity" from="1" to=".3" dur="0.8s" repeatCount="indefinite" begin="0.4s"/></circle><circle cx="74.916" cy="42" r="4" style="opacity:.3"><animate attributeName="opacity" from="1" to=".3" dur="0.8s" repeatCount="indefinite" begin="0.5s"/></circle><circle cx="107.661" cy="42" r="4" style="opacity:.3"><animate attributeName="opacity" from="1" to=".3" dur="0.8s" repeatCount="indefinite" begin="0.6s"/></circle><circle cx="107.661" cy="75" r="4" style="opacity:.3"><animate attributeName="opacity" from="1" to=".3" dur="0.8s" repeatCount="indefinite" begin="0.7s"/></circle><path d="M92.645 69.478H77.123V56.434a1.51 1.51 0 0 0-1.938-1.448c-.302.09-.567.27-.76.52L55.99 78.082a1.51 1.51 0 0 0 1.197 2.438h15.521v13.045a1.511 1.511 0 0 0 1.939 1.448c.301-.09.567-.271.76-.52l18.435-22.577a1.512 1.512 0 0 0-1.197-2.439ZM170.703 88.821v6.318H146.31V54.917h24.109v6.325h-17.487v10.454h16.054v6.234h-16.054v10.863l17.771.028ZM201.054 88.821v6.318h-22.961V54.917h6.602V88.82h16.359ZM230.574 88.821v6.318h-24.4V54.917h24.11v6.325h-17.508v10.454h16.075v6.234h-16.075v10.863l17.798.028ZM234.92 75.028c0-11.66 8.781-20.86 21.009-20.86a19.787 19.787 0 0 1 9.933 2.484 19.811 19.811 0 0 1 7.367 7.118l-5.744 3.332c-2.124-3.97-6.484-6.498-11.535-6.498-8.664 0-14.408 6.152-14.408 14.424 0 8.271 5.744 14.423 14.408 14.423 5.051 0 9.473-2.528 11.535-6.49l5.744 3.276c-3.328 5.86-9.875 9.65-17.3 9.65-12.228 0-21.009-9.193-21.009-20.86ZM306.003 61.242h-11.308v33.897h-6.601V61.242h-11.363v-6.325h29.272v6.325ZM325.537 80.487h-7.805v14.652h-6.602V54.916h16.068a12.86 12.86 0 0 1 9.15 3.774 12.885 12.885 0 0 1 3.77 9.16 12.69 12.69 0 0 1-2.208 7.042 12.663 12.663 0 0 1-5.75 4.618l9.12 15.629h-7.252l-8.491-14.652Zm-7.805-5.917h9.466a6.506 6.506 0 0 0 6.318-6.72c0-3.796-2.816-6.726-6.318-6.726h-9.466V74.57ZM354.048 54.916V95.14h-6.602V54.917h6.602ZM360.989 75.028c0-11.66 8.781-20.86 21.009-20.86a19.787 19.787 0 0 1 9.933 2.484 19.819 19.819 0 0 1 7.367 7.118l-5.744 3.332c-2.124-3.97-6.484-6.498-11.535-6.498-8.671 0-14.408 6.152-14.408 14.424 0 8.271 5.737 14.423 14.408 14.423 5.051 0 9.473-2.528 11.535-6.49l5.744 3.276c-3.329 5.86-9.875 9.65-17.3 9.65-12.228 0-21.009-9.193-21.009-20.86ZM412.224 54.916V95.14h-6.601V54.917h6.601ZM446.554 61.242h-11.286v33.897h-6.595V61.242h-11.397v-6.325h29.278v6.325ZM470.601 79.17V95.14H464V79.171l-14.006-24.248h7.522l9.812 17.819 9.757-17.819h7.522l-14.006 24.248ZM545.158 95.14h-6.602V66.464l-12.221 20.23h-.803L513.305 66.41v28.73h-6.602V54.915h7.114l12.117 20.091 12.165-20.09h7.059v40.222ZM577.184 87.04h-17.107l-2.809 8.1h-7.176l14.58-40.224h7.917l14.532 40.223h-7.128l-2.809-8.098Zm-2.18-6.234-6.374-18.158-6.373 18.158h12.747ZM620.136 68.135a13.081 13.081 0 0 1-3.865 9.432 13.049 13.049 0 0 1-9.456 3.785h-8.235V95.14h-6.574V54.917h14.809a13.007 13.007 0 0 1 9.467 3.774 13.04 13.04 0 0 1 3.854 9.444Zm-6.602 0c0-4.08-2.816-7.011-6.719-7.011h-8.235v14.022h8.235c3.903 0 6.719-2.986 6.719-7.011ZM623.776 86.008l5.681-3.332c1.44 4.073 4.54 6.775 9.993 6.775 5.224 0 7.459-2.355 7.459-5.285 0-3.561-3.155-4.767-9.127-6.61-6.228-1.89-12.338-4.156-12.338-11.777 0-7.412 6.138-11.61 12.912-11.61a14.915 14.915 0 0 1 14.006 8.875l-5.57 3.213c-1.433-3.214-3.924-5.653-8.436-5.653-3.847 0-6.311 1.954-6.311 5.002s2.235 4.427 8.09 6.235c6.657 2.127 13.376 4.198 13.376 12.186 0 7.35-5.854 11.832-14.234 11.832-7.924.028-13.377-3.879-15.501-9.85Z"/></svg>
